source/img/icon-pin.svg

<svg width="20" height="28" viewBox="0 0 20 28" fill="none" xmlns="http://www.w3.org/2000/svg">
<path d="M10 0C4.48597 0 -1.05331e-07 4.54902 -1.05331e-07 10.1405C-1.05331e-07 17.0797 8.94902 27.2668 9.33003 27.6971C9.68791 28.1013 10.3127 28.1006 10.67 27.6971C11.051 27.2668 20 17.0797 20 10.1405C19.9999 4.54902 15.514 0 10 0ZM10 15.2425C7.22575 15.2425 4.9688 12.9537 4.9688 10.1405C4.9688 7.32726 7.22581 5.03858 10 5.03858C12.7742 5.03858 15.0311 7.32731 15.0311 10.1406C15.0311 12.9538 12.7742 15.2425 10 15.2425Z" fill="#57AB27"/>
</svg>

<svg width="20" height="28" fill="none" xmlns="http://www.w3.org/2000/svg"><path d="M10 0C4.486 0 0 4.549 0 10.14c0 6.94 8.949 17.127 9.33 17.557a.892.892 0 0 0 1.34 0c.381-.43 9.33-10.617 9.33-17.556C20 4.548 15.514 0 10 0zm0 15.242c-2.774 0-5.031-2.288-5.031-5.102 0-2.813 2.257-5.1 5.031-5.1 2.774 0 5.031 2.288 5.031 5.102 0 2.813-2.257 5.101-5.031 5.101z" fill="#57AB27"/></svg>
